packages/theme-chalk/src/icons/city.svg

<svg width="20px" height="20px" viewBox="0 0 20 20" version="1.1" xmlns="http://www.w3.org/2000/svg" xmlns:xlink="http://www.w3.org/1999/xlink">
    <g id="Symbols" stroke="none" stroke-width="1" fill-rule="evenodd">
        <g id="icon/default/city" transform="translate(-2.000000, -2.000000)">
            <path d="M20.002,16.002 L18.002,16.002 L18.002,14.002 L20.002,14.002 L20.002,16.002 Z M20.002,20.002 L18.002,20.002 L18.002,18.002 L20.002,18.002 L20.002,20.002 Z M15.002,8.002 L13.002,8.002 L13.002,6.002 L15.002,6.002 L15.002,8.002 Z M15.002,12.002 L13.002,12.002 L13.002,10.002 L15.002,10.002 L15.002,12.002 Z M15.002,16.002 L13.002,16.002 L13.002,14.002 L15.002,14.002 L15.002,16.002 Z M11.002,8.002 L9.002,8.002 L9.002,6.002 L11.002,6.002 L11.002,8.002 Z M11.002,12.002 L9.002,12.002 L9.002,10.002 L11.002,10.002 L11.002,12.002 Z M11.002,16.002 L9.002,16.002 L9.002,14.002 L11.002,14.002 L11.002,16.002 Z M6.002,16.002 L4.002,16.002 L4.002,14.002 L6.002,14.002 L6.002,16.002 Z M6.002,20.002 L4.002,20.002 L4.002,18.002 L6.002,18.002 L6.002,20.002 Z M21.002,12.002 L17.002,12.002 L17.002,5.002 C17.002,4.451 16.555,4.002 16.002,4.002 L15.002,4.002 L15.002,3.002 C15.002,2.451 14.555,2.002 14.002,2.002 L10.002,2.002 C9.45,2.002 9.002,2.451 9.002,3.002 L9.002,4.002 L8.002,4.002 C7.45,4.002 7.002,4.451 7.002,5.002 L7.002,12.002 L3.002,12.002 C2.45,12.002 2.002,12.451 2.002,13.002 L2.002,21.002 C2.002,21.555 2.45,22.002 3.002,22.002 L10.002,22.002 L10.002,18.002 L14.002,18.002 L14.002,22.002 L21.002,22.002 C21.555,22.002 22.002,21.555 22.002,21.002 L22.002,13.002 C22.002,12.451 21.555,12.002 21.002,12.002 L21.002,12.002 Z" id="Fill-537"></path>
        </g>
    </g>
</svg>

<svg xmlns="http://www.w3.org/2000/svg" width="24" height="24" viewBox="0 0 24 24">
    <path fill-rule="evenodd" d="M20.002 16.002h-2v-2h2v2zm0 4h-2v-2h2v2zm-5-12h-2v-2h2v2zm0 4h-2v-2h2v2zm0 4h-2v-2h2v2zm-4-8h-2v-2h2v2zm0 4h-2v-2h2v2zm0 4h-2v-2h2v2zm-5 0h-2v-2h2v2zm0 4h-2v-2h2v2zm15-8h-4v-7a1 1 0 0 0-1-1h-1v-1a1 1 0 0 0-1-1h-4c-.552 0-1 .449-1 1v1h-1c-.552 0-1 .449-1 1v7h-4c-.552 0-1 .449-1 1v8a1 1 0 0 0 1 1h7v-4h4v4h7a1 1 0 0 0 1-1v-8a1 1 0 0 0-1-1z"/>
</svg>
